X: 15099
T: Getting Upstairs
R: barndance
M: 4/4
K: Gmajor
|:Bc dg|c2 d2|ed cB|AB c2:|
|:d/c/|B/G/A/F/ DG|F/G/A/B/ c/e/d/c/|
B/G/A/F/ DG|F/G/A/B/ G2:|

